icons/pnpm.svg

<svg xmlns="http://www.w3.org/2000/svg" width="16" height="16" fill="none"><path fill="#909090" fill-opacity=".6" d="M10.5 10.5h3v3h-3v-3ZM6.5 10.5h3v3h-3v-3ZM2.5 10.5h3v3h-3v-3Z"/><path fill="#FFCB66" d="M10.5 6.5h3v3h-3v-3Z"/><path fill="#909090" fill-opacity=".6" d="M6.5 6.5h3v3h-3v-3Z"/><path fill="#FFCB66" d="M10.5 2.5h3v3h-3v-3ZM6.5 2.5h3v3h-3v-3ZM2.5 2.5h3v3h-3v-3Z"/></svg>

<svg width="16" height="16" viewBox="0 0 16 16" fill="none" xmlns="http://www.w3.org/2000/svg">
<path d="M10.5 10.5H13.5V13.5H10.5V10.5Z" fill="#909090" fill-opacity="0.6"/>
<path d="M6.5 10.5H9.5V13.5H6.5V10.5Z" fill="#909090" fill-opacity="0.6"/>
<path d="M2.5 10.5H5.5V13.5H2.5V10.5Z" fill="#909090" fill-opacity="0.6"/>
<path d="M10.5 6.5H13.5V9.5H10.5V6.5Z" fill="#FFCB66"/>
<path d="M6.5 6.5H9.5V9.5H6.5V6.5Z" fill="#909090" fill-opacity="0.6"/>
<path d="M10.5 2.5H13.5V5.5H10.5V2.5Z" fill="#FFCB66"/>
<path d="M6.5 2.5H9.5V5.5H6.5V2.5Z" fill="#FFCB66"/>
<path d="M2.5 2.5H5.5V5.5H2.5V2.5Z" fill="#FFCB66"/>
</svg>
